resources/svg/document-cloud.svg

<svg xmlns="http://www.w3.org/2000/svg" viewBox="0 0 24 24" fill="currentColor"><path fill="none" stroke="currentColor" stroke-width="2" d="M4.99787498,6.99999999 L4.99787498,0.999999992 L19.4999998,0.999999992 L22.9999998,4.50000005 L23,23 L19,23 M18,1 L18,6 L23,6 M11,13 L6.00166547,13 C4.34389141,13 3,14.3465171 3,16 L3,16 C3,17.6568542 4.34306961,19 5.9906311,19 L7,19 L7,20.0093689 C7,21.6610488 8.33902013,23 10.0016655,23 L11.9983345,23 C13.6561086,23 15,21.6569304 15,20.0093689 L15,19 M11,19 L15.9983345,19 C17.6561086,19 19,17.6534829 19,16 L19,16 C19,14.3431458 17.6569304,13 16.0093689,13 L15,13 L15,11.9906311 C15,10.3389512 13.6609799,9 11.9983345,9 L10.0016655,9 C8.34389141,9 7,10.3430696 7,11.9906311 L7,13"/></svg>

<svg viewBox="0 0 24 24"><path fill="none" stroke="currentColor" stroke-width="2" d="M4.998 7V1H19.5L23 4.5V23h-4M18 1v5h5m-12 7H6.002A3.003 3.003 0 0 0 3 16h0c0 1.657 1.343 3 2.99 3H7v1.01A2.993 2.993 0 0 0 10.002 23h1.996A2.999 2.999 0 0 0 15 20.01V19m-4 0h4.998A3.003 3.003 0 0 0 19 16h0c0-1.657-1.343-3-2.99-3H15v-1.01A2.993 2.993 0 0 0 11.998 9h-1.996A2.999 2.999 0 0 0 7 11.99V13"/></svg>
